!!!!SEGMENT: pl-kk--kk-i-88--004-005_golabek-jakub--missa-4ta-benedictus.krn
!!!cenid: 17xx:2594
!!!COM: Gołąbek, Jakub
!!!COM-rismID: pe30008748
!!!CDT: 1739-1789/03/30
!!!CNT: Polish
!!!OPR: Missa 4ta
!!!OTL: Benedictus
!!!OMV: 005
!!!PDT:
!!!AGN: Sacred; Mass
!!!YEC: Copyright 2022 Narodowy Instytut Fryderyka Chopina (https://polishscores.org)
!!!YEM: License CC-BY-4.0 (https://creativecommons.org/licenses/by/4.0)
!!!SMS-siglum: PL-Kk
!!!SMS-shelfmark: Kk.I.88
!!!SMS-variant:
!!!SMS-altvar:
!!!SMS-shelfwork: 004-005 M
!!!NIFC-rismSourceID: 1001164072
!!!NIFC-rismChildID: 1001164083
!!!NIFC-islandoraID:
!!!URL-pdf-islandora: https://repozytorium.nifc.pl/islandora/object/pl-kk%3A3086/datastream/PDF/view
!!!URL-scan: https://polish.musicsources.pl/pl/lokalizacje/galeria/rekopisy/6148-missa/4 @EN{Scan on Polish Music Sources Website} @PL{Skany w portalu Dziedzictwo Muzyki Polskiej w otwartym dostępie}
!!!IIIF:
!!!ONB-nifc: UWAGA: C - f. 8r-9v; A - f. 16r-17v; T - f. 24r-25v; B - f. 37r-39v; B rip - f. 37r-39v. Proszę uwzględniać B rip. Części Mszy: 1. Kyrie, 2. Christe, 3. Et in terra, 4. Sanctus, 5, Benedictus, 6. Osanna, 7. Agnus Dei.
!!!AIN: 1 alto 2 bass 1 soprn 1 tenor
!!!key:
**kern	**kern	**kern	**text	**kern	**text	**kern	**text
*part5	*part4	*part3	*part3	*part2	*part2	*part1	*part1
*staff5	*staff4	*staff3	*staff3	*staff2	*staff2	*staff1	*staff1
*I"Baſso	*I"Baſso	*I"Tenore	*	*I"Alto	*	*I"Canto	*
*I'B rip	*I'B	*I'T	*	*I'A	*	*I'S	*
*Ibass	*Ibass	*Itenor	*	*Ialto	*	*Isoprn	*
*ICvox	*ICvox	*ICvox	*	*ICvox	*	*ICvox	*
*clefF4	*clefF4	*clefC4	*	*clefC3	*	*clefC1	*
*k[b-e-]	*k[b-e-]	*k[b-e-]	*	*k[b-e-]	*	*k[b-e-]	*
*B-:	*B-:	*B-:	*	*B-:	*	*B-:	*
*M3/2	*M3/2	*M3/2	*	*M3/2	*	*M3/2	*
=1	=1	=1	=1	=1	=1	=1	=1
!LO:TX:a:t=Benedictus Tacet	!LO:TX:a:t=Benedictus Tacet	!	!	!	!	!	!
*	*	*	*	*2\right	*	*2\right	*
1.ryy	1.ryy	1F	Be-	2d\	Be-	2b-\	Be-
.	.	.	.	4c\	.	4a\	.
.	.	.	.	4d\	.	4b-\	.
.	.	2F/	-ne-	2e-\	-ne-	2cc\	-ne-
=2	=2	=2	=2	=2	=2	=2	=2
*	*	*2\right	*	*	*	*	*
1.ryy	1.ryy	2A\	-di-	2e-\	-di-	2cc\	-di-
.	.	2B-\	-ctus	2d\	-ctus	2b-\	-ctus
.	.	2B-\	qui	2f\	qui	2dd\	qui
=3	=3	=3	=3	=3	=3	=3	=3
1.ryy	1.ryy	2E-/	ve-	4f\	ve-	4dd\	ve-
.	.	.	.	4e-\	.	4cc\	.
.	.	1F	.	4e-\	.	4cc\	.
.	.	.	.	4d\	.	4b-\	.
.	.	.	.	4d\	.	4b-\	.
.	.	.	.	4c\	.	4a\	.
=4	=4	=4	=4	=4	=4	=4	=4
1.ryy	1.ryy	2F/	-nit	2d\	-nit	2b-\	-nit
.	.	2r	.	2r	.	2r	.
.	.	2B-\	qui	4f\	qui	4dd\	qui
.	.	.	.	8e-\L	.	8cc\L	.
.	.	.	.	8d\J	.	8b-\J	.
!	!	!	!	!LO:LB:g=original	!	!LO:LB:g=original	!
=5	=5	=5	=5	=5	=5	=5	=5
1.ryy	1.ryy	2F/	ve-	2d\	ve-	2b-\	ve-
.	.	2F/	-nit	2c\	-nit	2a\	-nit
.	.	2A\	qui	4g\	qui	4ee-\	qui
.	.	.	.	8f\L	.	8dd\L	.
.	.	.	.	8e-\J	.	8cc\J	.
=6	=6	=6	=6	=6	=6	=6	=6
1.ryy	1.ryy	2A\	ve-	2e-\	ve-	2cc\	ve-
.	.	2B-\	-nit	2d\	-nit	2b-\	-nit
!	!	!LO:LB:g=original	!	!	!	!	!
.	.	2B-\	in	2f\	in	2dd\	in
=7	=7	=7	=7	=7	=7	=7	=7
1.ryy	1.ryy	1B-	no-	4b-\	no-	4dd\	no-
.	.	.	.	4a\	.	4cc\	.
.	.	.	.	4g\	.	4ee-\	.
.	.	.	.	4f\	.	4dd\	.
.	.	4E-/	-mi-	4e-\	-mi-	4cc\	-mi-
.	.	4En/	-ne	4d\	-ne	4b-\	-ne
=8	=8	=8	=8	=8	=8	=8	=8
1.ryy	1.ryy	4F/	Do-	4d\	Do-	4b-\	Do-
.	.	4F/	-mi-	4c\	-mi-	4a\	-mi-
.	.	2F/	-ni	2c\	-ni	2a\	-ni
.	.	2r	.	2r	.	2r	.
=9	=9	=9	=9	=9	=9	=9	=9
1.ryy	1.ryy	2A\	Be-	1f	Be-	2cc\	Be-
.	.	2B-\	.	.	.	2dd\	.
.	.	2c\	-ne-	2f\	-ne-	2ee-X\	-ne-
!	!	!	!	!LO:LB:g=original	!	!LO:LB:g=original	!
=10	=10	=10	=10	=10	=10	=10	=10
1.ryy	1.ryy	1B-	-di-	4f\	-di-	1dd	-di-
.	.	.	.	8g\L	.	.	.
.	.	.	.	8a\J	.	.	.
.	.	.	.	4b-\	.	.	.
.	.	.	.	8a\L	.	.	.
.	.	.	.	8g\J	.	.	.
.	.	2B-\	-ctus	2f\	-ctus	2dd\	-ctus
=11	=11	=11	=11	=11	=11	=11	=11
1.ryy	1.ryy	2A\	qui	1.f	qui	2cc\	qui
.	.	2B-\	.	.	.	2dd\	.
.	.	2c\	.	.	.	2ee-\	.
!	!	!LO:LB:g=original	!	!	!	!	!
=12	=12	=12	=12	=12	=12	=12	=12
1.ryy	1.ryy	2B-\	ve-	4f\	ve-	2dd\	ve-
.	.	.	.	8g\L	.	.	.
.	.	.	.	8a\J	.	.	.
.	.	2B-\	-nit	4b-\	.	2.dd\	-nit
.	.	.	.	8a\L	.	.	.
.	.	.	.	8g\J	.	.	.
.	.	2B-\	in	4f\	-nit	.	.
.	.	.	.	4f\	in	4dd\	in
=13	=13	=13	=13	=13	=13	=13	=13
1.ryy	1.ryy	2.B-\	no-	2.f\	no-	2.dd\	no-
.	.	4A\	-mi-	4e-\	-mi-	4cc\	-mi-
.	.	2F/	-ne	2d\	-ne	2b-\	-ne
=14	=14	=14	=14	=14	=14	=14	=14
1.ryy	1.ryy	2E-/	Do-	4g\	Do-	4ee-\	Do-
.	.	.	.	8f\L	.	8dd\L	.
.	.	.	.	8e-\J	.	8cc\J	.
.	.	2F/	.	2d\	.	2b-\	.
.	.	2F/	-mi-	2c\	-mi-	2a\	-mi-
!	!	!	!	!LO:LB:g=original	!	!	!
=15	=15	=15	=15	=15	=15	=15	=15
1.ryy	1.ryy	2B-\	-ni	2d\	-ni	2f/	-ni
.	.	2r	.	2r	.	2r	.
.	.	2B-\	in	2f\	in	2dd\	in
=16	=16	=16	=16	=16	=16	=16	=16
1.ryy	1.ryy	2.B-\	no-	4f\	no-	4dd\	no-
.	.	.	.	4g\	.	4ee-\	.
.	.	.	.	4f\	-mi-	4dd\	-mi-
.	.	4A\	-mi-	4e-\	.	4cc\	.
.	.	2F/	-ne	2d\	-ne	2b-\	-ne
!	!	!	!	!	!	!LO:LB:g=original	!
=17	=17	=17	=17	=17	=17	=17	=17
1.ryy	1.ryy	2E-/	Do-	4g\	Do-	4ee-\	Do-
.	.	.	.	8f\L	.	8dd\L	.
.	.	.	.	8e-\J	.	8cc\J	.
.	.	2F/	.	2d\	.	2b-\	.
.	.	2F/	-mi-	2c\	-mi-	2a\	-mi-
!	!	!LO:LB:g=original	!	!	!	!	!
=18	=18	=18	=18	=18	=18	=18	=18
!	!	!LO:TX:b:i:t=Seque Osanna	!	!	!	!	!
1.ryy	1.ryy	1.B-	-ni	1d	-ni	1f	-ni
!	!	!	!	!LO:TX:b:i:t=Verte	!	!LO:TX:b:i:t=V&colon;	!
!	!	!	!	!LO:TX:b:i:t=Seque Osanna	!	!LO:TX:b:i:t=Seque Osanna	!
.	.	.	.	2r	.	2r	.
==	==	==	==	==	==	==	==
*-	*-	*-	*-	*-	*-	*-	*-
!!!system-decoration: [(s1,s2,s3,s4,s5)]
!!!ENC: Andrzej Borzym
!!!END: 2024-03-06
!!!EED: Andrzej Borzym
!!!END: 2025-02-17
